!!!OTL: Lieb und Leid (96a), S. 244
!!!id: T0257
**kern
*clefG2
*k[]
*C:
{8g
=1
4cc
8e
4a
8g
=2
8g
4f}
4r
=3
{16b
16cc
=4
4dd
8f
4g
8f
=5
4.e}
4r
=6
{8g
=7
4ee
8dd
4cc
8b
=8
8b
4a}
4r
=9
{16a
16a
=10
4g
8cc
4cc
8g
=11
4cc
8dd
4ee}
=12
{8g
=13
4ee
8dd
4cc
8b
=14
8b
4a}
4r
=15
{16a
16a
=16
4g
8cc
4ee
8dd
=17
4.cc}
4r
==
*-
!!!minrhy: 16
!!!meters: 6/8 ]  ZZ[6
!!!cut: Lieb und Leid (96a), S. 244
!!!reg: Luxemburg
!!!trd: Singendes Volk, Esch-Alzette 1937 posth.
!!!rhy1: X_  X__X_X__X_  X_X__0__
!!!rhy2: XX  X__X_X__X_  X__.0__
!!!key: T0257  16  C 6/8 ]  ZZ[6
!!!mod: HEPTATONIK IONISCH]  AMBITUS[8
!!!kad: 436+36+1
!!!akz: +165_+253_+3+17_5+1+1+3_+3+17_5+3+1_
!!!fot: 'a__b__as'c__as'd__
!!!for: 'a__aw_a__aw_a__aw_
!!!fok: '^d_^d_^a_~a_^a_^a_
!! PHRAS[AUFTAKTIG]
!!!fkt: Liebeslieder
!!!bem1: Savelborn, fff Leny Goerens, 6.2.1916
!!!bem2: StraPen, fff Witry, 29.2.1933
!! THILL, Mathias:
!! PR[14] 2K[7] 2G[24] 3K[7] 3G[0] 4A[2] 4Ü[0] 5A[0] 6K[0] 6G[0]
!! 7K[0] 7G[0] 8A[0] MEHR[0] SI[40] ABS[42] SR[31] SP[10]
!! ST[16] 2k[7] 2g[26] 3k[12] 3g[0] 4d[0] 4ü[0] 5d[0] 6k[0] 6g[0]
!! 7k[0] 7g[0] 8d[0] mehr[0] si[45] dm[-5] sr[33] sp[12]
!! 1F[55] 2F[45] 3F[0] 4F[0] LF[0] 2P[0] 3P[0] 4P[0] TRI[0] DF[2] AB[44]
!! TF[0] U3K[0] U3[0] U4[0] U4Ü[0] U5[0] U6K[0] U6[0] U7K[0] U7[0]
!! N1[0] N2K[0] N2[7] N3K[0] N3[30] N4[19] N4Ü[0] N5[33] N6K[0] N6[12]
!!!n7k: 0] N7[0] O1[0] O2K[0] O2[0] O3K[0] O3[0] HÖ[0
